X: 305589
M: C|
L: 1/8
K: G
(GA).B.c (dc).B.A | (gf).g.e e2d2 |\
(Bd).B.G (ce).c.A | (Bd)BG GFED |\
(GA).B.c (dB).A.G | gfge e2d2 |\
|: d2 |\
defg (ga).f.d | (gb).g.e (fa).f.d |\
(de).f.g (af).d.c | (Bd).B.G (FA).F.D |\
(Bd).B.G (ce).c.A | (ga).f.d (gb).g.e |\
(dg).f.e dcBA | G2F2G2 :|


